usr/share/icons/biglinux-icons-material/scalable/apps/budgiewprviews.svg

<svg width="24" height="24" viewBox="0 0 24 24" fill="none" xmlns="http://www.w3.org/2000/svg">
<path fill-rule="evenodd" clip-rule="evenodd" d="M9.59604 1.11359C9.71588 1.11486 9.83043 1.0996 9.93969 1.06779C11.3755 0.973736 12.8111 0.977551 14.2467 1.07924C15.5484 1.18066 16.8085 1.46308 18.0269 1.9265C20.0525 2.76044 21.4386 4.20689 22.185 6.26585C22.6119 7.50549 22.8639 8.78021 22.9411 10.09C23.0478 11.7347 23.0096 13.3758 22.8265 15.0133C22.6895 16.1642 22.3916 17.271 21.933 18.3336C21.0824 20.1761 19.704 21.447 17.7978 22.1463C16.2531 22.6682 14.6647 22.943 13.0325 22.9706C11.1966 23.0661 9.37913 22.9287 7.57997 22.5585C4.26839 21.8208 2.22559 19.8018 1.45158 16.5017C1.12311 15.0161 0.974199 13.5124 1.00483 11.9906C0.968176 10.3724 1.14 8.77709 1.52031 7.20471C2.33171 4.11908 4.2905 2.20701 7.39669 1.46852C8.12048 1.29157 8.8536 1.17326 9.59604 1.11359Z" fill="url(#paint0_radial_2_2)"/>
<path d="M7.81852 7.16459H3.9635C3.47219 7.16459 3.07391 7.56288 3.07391 8.05419V10.4354C3.07391 10.9267 3.47219 11.325 3.9635 11.325H7.81852C8.30982 11.325 8.70811 10.9267 8.70811 10.4354V8.05419C8.70811 7.56288 8.30982 7.16459 7.81852 7.16459Z" fill="white"/>
<path d="M14.2735 7.16459H10.4184C9.92714 7.16459 9.52885 7.56288 9.52885 8.05419V10.4354C9.52885 10.9267 9.92714 11.325 10.4184 11.325H14.2735C14.7648 11.325 15.1631 10.9267 15.1631 10.4354V8.05419C15.1631 7.56288 14.7648 7.16459 14.2735 7.16459Z" fill="white"/>
<path d="M7.74461 12.2062H3.88959C3.39829 12.2062 3 12.6045 3 13.0958V15.477C3 15.9683 3.39829 16.3666 3.88959 16.3666H7.74461C8.23592 16.3666 8.6342 15.9683 8.6342 15.477V13.0958C8.6342 12.6045 8.23592 12.2062 7.74461 12.2062Z" fill="white"/>
<path d="M14.1996 12.2062H10.3445C9.85323 12.2062 9.45495 12.6045 9.45495 13.0958V15.477C9.45495 15.9683 9.85323 16.3666 10.3445 16.3666H14.1996C14.6909 16.3666 15.0891 15.9683 15.0891 15.477V13.0958C15.0891 12.6045 14.6909 12.2062 14.1996 12.2062Z" fill="white"/>
<path d="M12.226 3C10.0581 3.00848 7.97022 3.82002 6.36566 5.27788H9.20265C10.1491 4.83153 11.1817 4.59759 12.2281 4.59245C14.1304 4.5908 15.9555 5.34462 17.3022 6.68819C18.6488 8.03177 19.4069 9.85512 19.4096 11.7574V11.7678C19.4085 13.6697 18.6524 15.4934 17.3073 16.8381C15.9622 18.1828 14.1383 18.9384 12.2364 18.939C11.1852 18.9366 10.1475 18.7033 9.19644 18.2556H6.35531C7.96516 19.7182 10.0613 20.5301 12.2364 20.5335C14.5608 20.5329 16.7899 19.6091 18.4333 17.9653C20.0768 16.3215 21 14.0922 21 11.7678V11.7574C20.9989 10.6063 20.7711 9.46665 20.3296 8.40356C19.8881 7.34047 19.2415 6.37476 18.4267 5.56156C17.612 4.74836 16.6451 4.10359 15.5811 3.66408C14.5172 3.22457 13.3771 2.99892 12.226 3Z" fill="white"/>
<defs>
<radialGradient id="paint0_radial_2_2" cx="0" cy="0" r="1" gradientUnits="userSpaceOnUse" gradientTransform="translate(12 1) rotate(90) scale(11)">
<stop stop-color="#6EBBF7"/>
<stop offset="1" stop-color="#2196F3"/>
</radialGradient>
</defs>
</svg>

<svg xmlns="http://www.w3.org/2000/svg" width="24" height="24" fill="none"><path fill="url(#a)" fill-rule="evenodd" d="M9.596 1.114c.12 0 .234-.014.344-.046a31.627 31.627 0 0 1 4.307.011c1.301.102 2.561.384 3.78.848 2.025.833 3.412 2.28 4.158 4.339.427 1.24.679 2.514.756 3.824a27.94 27.94 0 0 1-.114 4.923 11.88 11.88 0 0 1-.894 3.32c-.85 1.843-2.229 3.114-4.135 3.813a15.624 15.624 0 0 1-4.765.825 21.423 21.423 0 0 1-5.453-.413c-3.312-.737-5.354-2.756-6.128-6.056a19.047 19.047 0 0 1-.447-4.511 18.491 18.491 0 0 1 .515-4.786c.812-3.086 2.77-4.998 5.877-5.736a13.953 13.953 0 0 1 2.199-.355Z" clip-rule="evenodd"/><path fill="#fff" d="M7.819 7.165H3.963a.89.89 0 0 0-.89.89v2.38c0 .492.4.89.89.89H7.82a.89.89 0 0 0 .89-.89v-2.38a.89.89 0 0 0-.89-.89ZM14.274 7.165h-3.856a.89.89 0 0 0-.89.89v2.38c0 .492.4.89.89.89h3.856a.89.89 0 0 0 .89-.89v-2.38a.89.89 0 0 0-.89-.89ZM7.745 12.206H3.89a.89.89 0 0 0-.89.89v2.381c0 .491.398.89.89.89h3.855a.89.89 0 0 0 .89-.89v-2.381a.89.89 0 0 0-.89-.89ZM14.2 12.206h-3.855a.89.89 0 0 0-.89.89v2.381c0 .491.398.89.89.89H14.2a.89.89 0 0 0 .89-.89v-2.381a.89.89 0 0 0-.89-.89Z"/><path fill="#fff" d="M12.226 3a8.766 8.766 0 0 0-5.86 2.278h2.837a7.175 7.175 0 0 1 3.025-.686 7.175 7.175 0 0 1 7.182 7.165v.01a7.175 7.175 0 0 1-7.174 7.172 7.176 7.176 0 0 1-3.04-.683h-2.84a8.766 8.766 0 0 0 5.88 2.277A8.766 8.766 0 0 0 21 11.768v-.01A8.766 8.766 0 0 0 12.226 3Z"/><defs><radialGradient id="a" cx="0" cy="0" r="1" gradientTransform="matrix(0 11 -11 0 12 1)" gradientUnits="userSpaceOnUse"><stop stop-color="#6EBBF7"/><stop offset="1" stop-color="#2196F3"/></radialGradient></defs></svg>
